X:1
T:Lady, why grieve you still me? - Morley
T:#
%%score { 1 | 2 } 3 4
L:1/8
Q:1/4=105
M:4/4
K:F
V:1 treble nm="Soprano I" snm="S"
V:2 treble 
V:3 treble nm="Alto" snm="A"
V:4 treble-8 nm="Tenor" snm="T"
V:1
"^Lady, why grieve you still me?" z8 | B8 | A8 | z2 d3 d d2 | c2 G2 A4 | =B4 G4 | d8 | %7
w: |La-|dy,|La- dy why|grieve you still|me? La-|dy,|
"^Thomas Morley\n(1557-1603)" z8 |[M:4/4] z4 z2 g2 | ^f2 g2 d2 G2 | z8 | z4 z2 e2 | f3 g a4 | %13
w: |O|no, you love me,||O|no, you love,|
 d2 (g4 ^f2) | g4 z2 d2 | d3 c B2 B2 | A8 | =B4 _B4- | B4 A4- | A4 G4 | d4 d4- | d4 c4- | c4 B4 | %23
w: you love *|me; If|this be love to|kill|me. O|* strange|* tor-|ment- ing,|* strange|* tor-|
 A4 A4 | z2 B2 z4 | d4 z4 | _e6 d2 | d4 z4 | _e6 d2 | d4 z4 | z4 B4 | z4 A4 | z4 d4- | d4 c2 B2 | %34
w: ment- ing:|break,|ah,|break a-|las,|heart a-|las,|ah,|break,|break|* heart a-|
 A4 f4 | f4 e4 | d8- | d8 | d8 | G2 d3 d ^c2 | d2 A2 (B2 G2) | D4 z2 g2 | f3 f f2 e2 | f8 | %44
w: las, her|heart con-|tent\-||ing.|And you that now|do dis- dain *|me, and|you that now dis-|dain|
[M:4/4] d4 d2 _e3 | _e d2 d4 d4 z4 |[M:3/2] z2 G2 A2 B2 c6 |[M:3/2] B2 x6 z4 | x12 | %49
w: me, that now|do dis- dain me,|Say then that grief|hath||
[M:4/4] A4 G2 z2 | z2 d2 e2 f2 | g6 f2 | e4 d4 | z4 z2 A2 | B2 G2 c4- | c2 B2 A4 | =B4 z4 | %57
w: slain me,|say then that|grief hath|slain me,|say|then that grief|* hath slain|me.|
 z4 d2 g2- | gg f2 g2 d2 | f3 f _e3 e | d2 d2 c2 B2 | c8 |[M:4/4] B4 B2 c3 | c B2 A4 =B4 z4 | %64
w: And you|* that now do dis-|dain me, you that|now, that now dis-|dain|me, that now|do dis- dain me,|
[M:3/2] x12 |[M:4/4] z4 z2 d2 | e2 f2 g4- | g2 f2 e4 | d4 z4 | z2 G2 A2 B2 | c2 c2 B4 | %71
w: |Say|then that grief|* hath slain|me,|say then that|grief hath slain|
 A2 A2 B2 c2 | d4 _e4 | d8- | d8 | d8 |] %76
w: me, say then that|grief hath|slain||me,|
V:2
 G8 | d8 | z8 | z2 f3 f f2 | _e2 c2 d4 | d8 | z4 z2 g2 | ^f2 g2 d2 Gg |[M:4/4] ^f2 g2 d2 G2 | %9
w: La-|dy,||La- dy why|grieve you still|me?|O|no, you love me, O|no, you love me,|
 z2 G2 B3 c | d4 A2 (d2- | d2 ^c=B c4) | d2 f2 e2 A2 | z2 d2 d3 c | B2 G2 B4 | A4 (G4- | %16
w: O no, you|love, you love||me, you love me;|If this be|love to kill,|to kill|
 G2 ^FE F4) | G8 | z8 | z4 g4- | g4 f4- | f4 _e4 | d4 d4 | z4 z2 d2 | z4 z2 B2 | z4 =B4 | z8 | z8 | %28
w: |me.||O|* strange|* tor-|ment- ing:|ah,|break,|ah,|||
 z8 | z8 | d4 z4 | d4 z4 | f8 | f4 _e4 | d4 d4 | c8- | c4 B4 | A8 | B4 z4 | z4 d2 g2- | %40
w: ||ah,|break,|break|heart a-|las, her|heart|* con-|tent-|ing.|And you|
 gg ^f2 g2 d2 | f3 f _e3 e | d2 d2 c2 B2 | c8 |[M:4/4] B4 B2 x3 | c3 c B2 x9 | %46
w: * that now do dis-|dain me, you that|now, that now dis-|dain|me, that|now do dis-|
[M:3/2] A4 =B4 z4 x2 |[M:3/2] z4 z2 d2 z4 | e2 f2 g4- z4 |[M:4/4] g2 f2 e4 | d4 z4 | z2 G2 A2 B2 | %52
w: dain me,|Say|then that grief|* hath slain|me,|say then that|
 c2 c2 B4 | A2 A2 B2 c2 | d4 _e4 | d8 | d4 z4 | G2 d3 d ^c2 | d2 A2 (B2 G2) | D4 z2 g2 | %60
w: grief hath slain|me, say then that|grief hath|slain|me.|And you that now|do dis- dain *|me, and|
 f3 f f2 e2 | f8 |[M:4/4] d4 d2 x3 | e3 e d2 x9 |[M:3/2] d4 d4 z4 |[M:4/4] z2 G2 A2 B2 | c6 B2 | %67
w: you that now dis-|dain|me, that|now do dis-|dain me,|Say then that|grief hath|
 A4 G2 z2 | z2 d2 e2 f2 | g6 f2 | e4 d4 | z4 z2 A2 | B2 G2 c4- | c4 B4 | A8 | B8 |] %76
w: slain me,|say then that|grief hath|slain me,|say|then that grief|* hath|slain|me.|
V:3
 z8 | G8 | F8 | z2 F3 F B2 | G2 G2 ^F4 | G8 | z2 B2 A2 B2 | A2 GB A2 B2 |[M:4/4] A2 GB A2 B2 | %9
w: |La-|dy,|La- dy why|grieve you still|me?|O no, you|love me, O no, you|love me, O no, you|
 A2 G2 z4 | z2 D2 F3 G | A2 F2 E4 | D2 d4 ^c2 | d2 B2 A4 | G4 G4 | D2 A,2 B,3 C | D8 | D4 z4 | %18
w: love me,|O no, you|love, you love|me, O no,|no, you love|me; If|this be love to|kill|me.|
 z4 d4- | d4 c4 | B4 A4 | G4 G4 | F4 (G4- | G4 ^F4) | G4 z2 G2 | z4 G4 | z4 B4- | B2 A2 A4 | %28
w: O|* strange|tor- ment-|ing, strange|tor- ment\-||ing: break,|ah,|heart|* a- las,|
 z4 B4- | B2 A2 A4 | z4 G4 | z4 ^F4 | z4 B4- | B2 A2 G4 | ^F4 B4 | A4 G4 | (^F4 G4- | G4 ^F4) | %38
w: heart|* a- las,|break|heart,|break|* heart a-|las, her|heart con-|tent\- *||
 G4 G2 B2- | BB A2 B2 G2 | A4 G2 B2 | A3 F G3 A | B2 B2 A2 B2 | A2 (B4 A2) |[M:3/4] B2 F2 G2- x3 | %45
w: ing. And you|* that now do dis-|dain me, and|you that now dis-|dain, that now do|dis- dain *|me, that now|
 GG G2 G2 x9 |[M:3/2] ^F4 G2 G2 =F2 D2 x2 |[M:4/4] E6 D2 | C4 D4 z4 |[M:4/4] z2 d2 c2 A2 | %50
w: * dis- dain, dis-|dain me. Say then that|grief hath|slain me,|say then that|
 B3 A Bc (d2 | d2 ^c2) d2 D2 | E2 F2 G4- | G2 F2 _E4 | D2 B2 A2 G2 | ^F2 G4 F2 | G4 G2 B2- | %57
w: grief, that grief hath slain|* * me, say|then that grief|* hath slain|me, say then that|grief hath slain|me. And you|
 BB A2 B2 G2 | A4 G2 B2 | A3 F G3 A | B2 B2 A2 B2 | A2 (B4 A2) |[M:3/4] B2 F2 G2- x3 | %63
w: * that now do dis-|dain me, and|you that now dis-|dain, that now do|dis- dain *|me, that now|
 GG G2 G2 x9 |[M:3/2] ^F4 G2 G2 =F2 D2 |[M:4/4] E6 D2 | C4 D4 | z2 d2 c2 A2 | B3 A Bc (d2- | %69
w: * dis- dain, dis-|dain me, Say then that|grief hath|slain me,|say then that|grief, that grief hath slain|
 d2 ^c2) d2 D2 | E2 F2 G4- | G2 F2 _E4 | D2 B2 A2 G2 | ^F2 F2 (G4- | G4 ^F4) | G8 |] %76
w: * * me, say|then that grief|* hath slain|me, say then that|grief hath slain||me.|
V:4
 z8 | G8 | d8 | z2 d3 d B2 | c2 _e2 d4 | G8 | z2 g2 f2 g2 | d2 Gg ^f2 g2 | %8
w: |La-|dy,|La- dy why|grieve you still|me?|O no, you|love me, O no, you|
[M:4/4][K:treble-8] d2 Gg ^f2 g2 | d2 G2 z2 G2 | B3 c d4 | A8 | z4 z2 A2 | B3 c d4 | G4 z2 G2 | %15
w: love me, O no, you|love me, O|no, you love|me,|O|no, you love|me; If|
 ^F3 F G2 G2 | D8 | G4 g4- | g4 f4- | f4 _e4 | d4 d4 | B4 c4 | d4 d4 | z4 d2 z2 | z4 g2 z2 | z8 | %26
w: this be love to|kill|me. O|* strange|* tor-|ment- ing,|strange tor-|ment- ing:|ah,|break,||
 z4 g4- | g2 ^f2 f4 | z4 g4- | g2"^a- las," ^f2 f4 | z8 | z4 d4 | z4 B4 | B4 c4 | d4 B4 | c4 c4 | %36
w: heart|* a- las,|break|||break,|break|heart a-|las, her|heart con-|
 d8- | d8 | G4 G2 g2- | gg ^f2 g2 e2 | d4 G2 g2 | f2 d2 _e3 c | d2 B2 f2 g2 | f8 | %44
w: tent\-||ing. And you|* that now do dis-|dain me, and|you that now dis-|dain, that now dis-|dain|
[M:3/4] B4 G2 x3 | c3 c G2 x9 |[M:3/2] d4 G2 G2 A2 B2 x2 |[M:4/4] c6 B2 | A4 G4 z4 | %49
w: me, that|now do dis-|dain me, Say then that|grief hath|slain me,|
[M:4/4][K:treble-8] z2 d2 e2 f2 | g6 f2 | e4 d4 | z2 A2 B2 c2 | d6 c2 | B4 c4 | d8 | G4 G2 g2- | %57
w: say then that|grief hath|slain me,|say then that|grief hath|slain, hath|slain|me. And you|
 gg ^f2 g2 e2 | d4 G2 g2 | f3 d _e3 c | d2 B2 f2 g2 | f8 |[M:3/4] B4 G2 x3 | c3 c G2 x9 | %64
w: * that now do dis-|dain me, and|you that now dis-|dain, that now dis-|dain|me, that|now do dis-|
[M:3/2] d4 G2 G2 A2 B2 |[M:4/4][K:treble-8] c6 B2 | A4 G4 | z2 d2 e2 f2 | g6 e2 | e4 d4 | %70
w: dain me, Say then that|grief hath|slain me,|say then that|grief hath|slain me,|
 z2 A2 B2 c2 | d6 c2 | B4 c4 | d8- | d8 | G8 |] %76
w: say then that|grief hath|slain, hath|slain||me.|

